ivy-dev/22/pool/printer.svg

<?xml version="1.0" encoding="UTF-8" standalone="no"?>
<!-- Created with Inkscape (http://www.inkscape.org/) -->

<svg
   xmlns:dc="http://purl.org/dc/elements/1.1/"
   xmlns:cc="http://creativecommons.org/ns#"
   xmlns:rdf="http://www.w3.org/1999/02/22-rdf-syntax-ns#"
   xmlns:svg="http://www.w3.org/2000/svg"
   xmlns="http://www.w3.org/2000/svg"
   xmlns:xlink="http://www.w3.org/1999/xlink"
   xmlns:inkscape="http://www.inkscape.org/namespaces/inkscape"
   version="1.0"
   width="22"
   height="22"
   id="svg2">
  <metadata
     id="metadata46">
    <rdf:RDF>
      <cc:Work
         rdf:about="">
        <dc:format>image/svg+xml</dc:format>
        <dc:type
           rdf:resource="http://purl.org/dc/dcmitype/StillImage" />
        <dc:title />
      </cc:Work>
    </rdf:RDF>
  </metadata>
  <defs
     id="defs4">
    <linearGradient
       id="linearGradient1001">
      <stop
         id="stop1003"
         style="stop-color:#ebebeb;stop-opacity:1"
         offset="0" />
      <stop
         id="stop1005"
         style="stop-color:#ffffff;stop-opacity:1"
         offset="1" />
    </linearGradient>
    <linearGradient
       id="linearGradient982">
      <stop
         id="stop984"
         style="stop-color:#a1bfe5;stop-opacity:1"
         offset="0" />
      <stop
         id="stop986"
         style="stop-color:#5288d1;stop-opacity:1"
         offset="1" />
    </linearGradient>
    <linearGradient
       id="linearGradient919">
      <stop
         id="stop921"
         style="stop-color:#c1c1c1;stop-opacity:1"
         offset="0" />
      <stop
         id="stop923"
         style="stop-color:#ebebeb;stop-opacity:1"
         offset="1" />
    </linearGradient>
    <linearGradient
       x1="45"
       y1="21"
       x2="45"
       y2="42"
       id="linearGradient925"
       xlink:href="#linearGradient919"
       gradientUnits="userSpaceOnUse"
       gradientTransform="matrix(0.47619047,0,0,0.47619047,-0.42857141,-3.1168831e-7)" />
    <linearGradient
       x1="40"
       y1="21"
       x2="40"
       y2="29"
       id="linearGradient988"
       xlink:href="#linearGradient982"
       gradientUnits="userSpaceOnUse"
       gradientTransform="matrix(0.49999998,0,0,0.40046305,-0.99999983,2.3865727)" />
    <linearGradient
       x1="40"
       y1="6"
       x2="40"
       y2="21"
       id="linearGradient1007"
       xlink:href="#linearGradient1001"
       gradientUnits="userSpaceOnUse"
       gradientTransform="matrix(0.50000001,0,0,0.4705882,-1.0000002,0.11764755)" />
  </defs>
  <rect
     width="23.990063"
     height="24"
     rx="0.5"
     ry="0.66474944"
     x="-1"
     y="-1"
     id="rect4128"
     style="opacity:0;fill:#5288d1;fill-opacity:0.84705882;stroke:none" />
  <g
     transform="translate(-56.173557,-9.731802)"
     id="g2808" />
  <g
     transform="matrix(0.021951,0,0,0.03169375,88.062113,17.454014)"
     id="g6865" />
  <g
     transform="matrix(0.021951,0,0,0.03169375,109.17654,8.72408)"
     id="g3218" />
  <rect
     width="18"
     height="5.6666675"
     rx="0.5"
     ry="0.4722223"
     x="2"
     y="7"
     id="rect1009"
     style="fill:#6a6a6a;stroke:none" />
  <rect
     width="20"
     height="10"
     rx="0.95238096"
     ry="0.95238096"
     x="1"
     y="10"
     id="rect905"
     style="fill:url(#linearGradient925);stroke:none" />
  <rect
     width="16"
     height="7.2083344"
     rx="0.5"
     ry="0.40046307"
     x="3"
     y="6.7916656"
     id="rect969"
     style="fill:url(#linearGradient988);stroke:none" />
  <path
     d="m 1,16 0,3.111111 C 1,19.603556 1.4247619,20 1.952381,20 l 18.095238,0 C 20.575238,20 21,19.603556 21,19.111111 L 21,16 1,16 z"
     inkscape:connector-curvature="0"
     id="rect913"
     style="opacity:0.419;fill:#6a6a6a;stroke:none" />
  <rect
     width="20"
     height="1.0000004"
     x="1"
     y="15"
     id="rect927"
     style="opacity:0.7;stroke:none" />
  <rect
     width="16"
     height="1"
     x="3"
     y="17"
     id="rect965"
     style="fill:#171717;stroke:none" />
  <rect
     width="16"
     height="1.0000004"
     x="3"
     y="18"
     id="rect4100"
     style="opacity:0.52040016;fill:#ffffff;stroke:none" />
  <rect
     width="16"
     height="1.0000004"
     x="3"
     y="14"
     id="rect4102"
     style="opacity:0.5;fill:#ffffff;stroke:none" />
  <path
     d="m 3.5,6.3125 0,6.1875 15,0 0,-6.1875 -15,0 z"
     transform="translate(-2.5e-7,1.007812)"
     id="path4110"
     style="opacity:0.4;fill:none;stroke:#000000;stroke-linecap:round;stroke-linejoin:round" />
  <path
     d="M 3.5000001,2 C 3.2229999,2 3,2.2098827 3,2.4705888 L 3,10 19,10 19,2.4705888 C 19,2.2098827 18.777,2 18.5,2 z"
     inkscape:connector-curvature="0"
     id="rect977"
     style="fill:url(#linearGradient1007);stroke:none" />
  <path
     d="m 3.5078125,2.0078125 a 0.50005,0.50005 0 0 0 -0.5,0.5 L 3.0078125,7 C 3.0078751,6.9632686 2.9632686,7.0078751 3,7.0078125 l -0.4921875,0 a 0.50005,0.50005 0 0 0 -0.5,0.5 l 0,2.4921875 1,0 0,-1.9960938 C 3.5714067,7.9980639 4.006849,7.565065 4.0078125,7 l 0,-3.9921875 13.9843755,0 0,3.9921875 c 9.62e-4,0.5650646 0.436406,0.9980633 1,1.0039062 l 0,1.9960938 1,0 0,-2.4921875 a 0.50005,0.50005 0 0 0 -0.5,-0.5 l -0.492188,0 C 19.03673,7.0078752 18.992087,6.963266 18.992188,7 l 0,-4.4921875 a 0.50005,0.50005 0 0 0 -0.5,-0.5 l -14.9843755,0 z"
     inkscape:connector-curvature="0"
     id="path4119"
     style="font-style:normal;font-variant:normal;font-weight:normal;font-stretch:normal;text-indent:0;text-align:start;text-decoration:none;line-height:normal;letter-spacing:normal;word-spacing:normal;text-transform:none;direction:ltr;block-progression:tb;writing-mode:lr-tb;text-anchor:start;baseline-shift:baseline;opacity:0.4;color:#000000;fill:#000000;fill-opacity:1;stroke:none;stroke-width:1;marker:none;visibility:visible;display:inline;overflow:visible;enable-background:accumulate;font-family:sans-serif;-inkscape-font-specification:sans-serif" />
  <path
     d="M 1.9375,10.5 C 1.6833422,10.5 1.5,10.683342 1.5,10.9375 l 0,8.125 C 1.5,19.316658 1.6833422,19.5 1.9375,19.5 l 18.125,0 c 0.254158,0 0.4375,-0.183342 0.4375,-0.4375 l 0,-8.125 C 20.5,10.683342 20.316658,10.5 20.0625,10.5 l -18.125,0 z"
     id="path4106"
     style="opacity:0.4;fill:none;stroke:#000000" />
  <rect
     width="16"
     height="1"
     rx="0.5"
     ry="0.66474944"
     x="3"
     y="10"
     id="rect4130"
     style="opacity:0.67059996;fill:#000000;fill-opacity:0.84705882;stroke:none" />
  <rect
     width="1"
     height="2"
     x="3"
     y="8"
     id="rect4132"
     style="opacity:0.52040016;fill:#000000;fill-opacity:0.84705882;stroke:none" />
  <rect
     width="1"
     height="2"
     x="18"
     y="8"
     id="rect4134"
     style="opacity:0.52040016;fill:#000000;fill-opacity:0.84705882;stroke:none" />
</svg>

<?xml version="1.0" encoding="UTF-8" standalone="no"?>
<!-- Created with Inkscape (http://www.inkscape.org/) -->

<svg
   xmlns:dc="http://purl.org/dc/elements/1.1/"
   xmlns:cc="http://creativecommons.org/ns#"
   xmlns:rdf="http://www.w3.org/1999/02/22-rdf-syntax-ns#"
   xmlns:svg="http://www.w3.org/2000/svg"
   xmlns="http://www.w3.org/2000/svg"
   xmlns:xlink="http://www.w3.org/1999/xlink"
   xmlns:sodipodi="http://sodipodi.sourceforge.net/DTD/sodipodi-0.dtd"
   xmlns:inkscape="http://www.inkscape.org/namespaces/inkscape"
   version="1.0"
   width="22"
   height="22"
   id="svg2"
   inkscape:version="0.48+devel r"
   sodipodi:docname="printer.svg">
  <sodipodi:namedview
     pagecolor="#ffffff"
     bordercolor="#666666"
     borderopacity="1"
     objecttolerance="10"
     gridtolerance="10"
     guidetolerance="10"
     inkscape:pageopacity="0"
     inkscape:pageshadow="2"
     inkscape:window-width="1179"
     inkscape:window-height="583"
     id="namedview40"
     showgrid="true"
     inkscape:snap-bbox="true"
     inkscape:bbox-paths="true"
     inkscape:bbox-nodes="true"
     inkscape:snap-bbox-edge-midpoints="true"
     inkscape:snap-bbox-midpoints="false"
     inkscape:zoom="19.660668"
     inkscape:cx="13.066723"
     inkscape:cy="8.3282857"
     inkscape:window-x="204"
     inkscape:window-y="78"
     inkscape:window-maximized="0"
     inkscape:current-layer="svg2">
    <inkscape:grid
       type="xygrid"
       id="grid4094" />
  </sodipodi:namedview>
  <metadata
     id="metadata46">
    <rdf:RDF>
      <cc:Work
         rdf:about="">
        <dc:format>image/svg+xml</dc:format>
        <dc:type
           rdf:resource="http://purl.org/dc/dcmitype/StillImage" />
        <dc:title></dc:title>
      </cc:Work>
    </rdf:RDF>
  </metadata>
  <defs
     id="defs4">
    <linearGradient
       id="linearGradient1001">
      <stop
         id="stop1003"
         style="stop-color:#ebebeb;stop-opacity:1"
         offset="0" />
      <stop
         id="stop1005"
         style="stop-color:#ffffff;stop-opacity:1"
         offset="1" />
    </linearGradient>
    <linearGradient
       id="linearGradient982">
      <stop
         id="stop984"
         style="stop-color:#a1bfe5;stop-opacity:1"
         offset="0" />
      <stop
         id="stop986"
         style="stop-color:#5288d1;stop-opacity:1"
         offset="1" />
    </linearGradient>
    <linearGradient
       id="linearGradient919">
      <stop
         id="stop921"
         style="stop-color:#c1c1c1;stop-opacity:1"
         offset="0" />
      <stop
         id="stop923"
         style="stop-color:#ebebeb;stop-opacity:1"
         offset="1" />
    </linearGradient>
    <linearGradient
       x1="45"
       y1="21"
       x2="45"
       y2="42"
       id="linearGradient925"
       xlink:href="#linearGradient919"
       gradientUnits="userSpaceOnUse"
       gradientTransform="matrix(0.47619047,0,0,0.47619047,-0.42857141,-3.1168831e-7)" />
    <linearGradient
       x1="40"
       y1="21"
       x2="40"
       y2="29"
       id="linearGradient988"
       xlink:href="#linearGradient982"
       gradientUnits="userSpaceOnUse"
       gradientTransform="matrix(0.49999998,0,0,0.40046305,-0.99999983,2.3865727)" />
    <linearGradient
       x1="40"
       y1="6"
       x2="40"
       y2="21"
       id="linearGradient1007"
       xlink:href="#linearGradient1001"
       gradientUnits="userSpaceOnUse"
       gradientTransform="matrix(0.50000001,0,0,0.4705882,-1.0000002,0.11764755)" />
  </defs>
  <rect
     style="opacity:0;fill:#5288d1;fill-opacity:0.84705882;stroke:none"
     id="rect4128"
     width="23.990063"
     height="24"
     x="-1"
     y="-1"
     rx="0.5"
     ry="0.66474944" />
  <g
     transform="translate(-56.173557,-9.731802)"
     id="g2808" />
  <g
     transform="matrix(0.021951,0,0,0.03169375,88.062113,17.454014)"
     id="g6865" />
  <g
     transform="matrix(0.021951,0,0,0.03169375,109.17654,8.72408)"
     id="g3218" />
  <rect
     width="18"
     height="5.6666675"
     rx="0.5"
     ry="0.4722223"
     x="2"
     y="7"
     id="rect1009"
     style="fill:#6a6a6a;stroke:none" />
  <rect
     width="20"
     height="10"
     rx="0.95238096"
     ry="0.95238096"
     x="1"
     y="10"
     id="rect905"
     style="fill:url(#linearGradient925);stroke:none" />
  <rect
     width="16"
     height="7.2083344"
     rx="0.5"
     ry="0.40046307"
     x="3"
     y="6.7916656"
     id="rect969"
     style="fill:url(#linearGradient988);stroke:none" />
  <path
     d="m 1,16 0,3.111111 C 1,19.603556 1.4247619,20 1.952381,20 l 18.095238,0 C 20.575238,20 21,19.603556 21,19.111111 L 21,16 1,16 Z"
     inkscape:connector-curvature="0"
     id="rect913"
     style="opacity:0.419;fill:#6a6a6a;stroke:none" />
  <rect
     width="20"
     height="1.0000004"
     x="1"
     y="15"
     id="rect927"
     style="opacity:0.7;stroke:none" />
  <rect
     width="16"
     height="1"
     x="3"
     y="17"
     id="rect965"
     style="fill:#171717;stroke:none" />
  <rect
     width="16"
     height="1.0000004"
     x="3"
     y="18"
     id="rect4100"
     style="opacity:0.52040017;fill:#ffffff;stroke:none" />
  <rect
     style="opacity:0.5;fill:#ffffff;stroke:none"
     id="rect4102"
     y="14"
     x="3"
     height="1.0000004"
     width="16" />
  <path
     sodipodi:type="inkscape:offset"
     inkscape:radius="-0.50862968"
     inkscape:original="M 3.5 5.7910156 C 3.223 5.7910156 3 5.9695497 3 6.1914062 L 3 12.599609 C 3 12.821466 3.223 13 3.5 13 L 18.5 13 C 18.777 13 19 12.821466 19 12.599609 L 19 6.1914062 C 19 5.9695497 18.777 5.7910156 18.5 5.7910156 L 3.5 5.7910156 z "
     style="opacity:0.4;fill:none;stroke:#000000;stroke-linecap:round;stroke-linejoin:round"
     id="path4110"
     d="m 3.5078125,6.2988281 0,6.1933599 14.9843755,0 0,-6.1933599 -14.9843755,0 z"
     transform="translate(-2.5e-7,1.007812)" />
  <path
     d="M 3.5000001,2 C 3.2229999,2 3,2.2098827 3,2.4705888 L 3,10 19,10 19,2.4705888 C 19,2.2098827 18.777,2 18.5,2 Z"
     inkscape:connector-curvature="0"
     id="rect977"
     style="fill:url(#linearGradient1007);stroke:none" />
  <path
     style="font-style:normal;font-variant:normal;font-weight:normal;font-stretch:normal;text-indent:0;text-align:start;text-decoration:none;line-height:normal;letter-spacing:normal;word-spacing:normal;text-transform:none;direction:ltr;block-progression:tb;writing-mode:lr-tb;text-anchor:start;baseline-shift:baseline;opacity:0.4;color:#000000;color-interpolation:sRGB;color-interpolation-filters:linearRGB;fill:#000000;fill-opacity:1;stroke:none;stroke-width:1;marker:none;visibility:visible;display:inline;overflow:visible;enable-background:accumulate;clip-rule:nonzero;color-rendering:auto;image-rendering:auto;shape-rendering:auto;text-rendering:auto;font-family:sans-serif;-inkscape-font-specification:sans-serif"
     d="M 3.5078125 2.0078125 A 0.50005 0.50005 0 0 0 3.0078125 2.5078125 L 3.0078125 7 C 3.0078751 6.9632686 2.9632686 7.0078751 3 7.0078125 L 2.5078125 7.0078125 A 0.50005 0.50005 0 0 0 2.0078125 7.5078125 L 2.0078125 10 L 3.0078125 10 L 3.0078125 8.0039062 C 3.5714067 7.9980639 4.006849 7.565065 4.0078125 7 L 4.0078125 3.0078125 L 17.992188 3.0078125 L 17.992188 7 C 17.99315 7.5650646 18.428594 7.9980633 18.992188 8.0039062 L 18.992188 10 L 19.992188 10 L 19.992188 7.5078125 A 0.50005 0.50005 0 0 0 19.492188 7.0078125 L 19 7.0078125 C 19.03673 7.0078752 18.992087 6.963266 18.992188 7 L 18.992188 2.5078125 A 0.50005 0.50005 0 0 0 18.492188 2.0078125 L 3.5078125 2.0078125 z "
     id="path4119" />
  <path
     sodipodi:type="inkscape:offset"
     inkscape:radius="-0.50862974"
     inkscape:original="M 1.953125 10 C 1.425506 10 1 10.425506 1 10.953125 L 1 19.046875 C 1 19.574494 1.425506 20 1.953125 20 L 20.046875 20 C 20.574494 20 21 19.574494 21 19.046875 L 21 10.953125 C 21 10.425506 20.574494 10 20.046875 10 L 1.953125 10 z "
     style="opacity:0.4;fill:none;stroke:#000000"
     id="path4106"
     d="m 1.953125,10.507812 c -0.2541578,0 -0.4453125,0.191155 -0.4453125,0.445313 l 0,8.09375 c 0,0.254158 0.1911547,0.445313 0.4453125,0.445313 l 18.09375,0 c 0.254158,0 0.445313,-0.191155 0.445313,-0.445313 l 0,-8.09375 c 0,-0.254158 -0.191155,-0.445313 -0.445313,-0.445313 l -18.09375,0 z" />
  <rect
     style="opacity:0.67059991;fill:#000000;fill-opacity:0.84705882;stroke:none"
     id="rect4130"
     width="16"
     height="1"
     x="3"
     y="10"
     rx="0.5"
     ry="0.66474944" />
  <rect
     style="opacity:0.52040016;fill:#000000;fill-opacity:0.84705882;stroke:none"
     id="rect4132"
     width="1"
     height="2"
     x="3"
     y="8" />
  <rect
     style="opacity:0.52040016;fill:#000000;fill-opacity:0.84705882;stroke:none"
     id="rect4134"
     width="1"
     height="2"
     x="18"
     y="8" />
</svg>
